icons/svg/seamark/harbour_shipyard.svg

<?xml version="1.0" encoding="UTF-8" standalone="no"?>
<svg
   xmlns:dc="http://purl.org/dc/elements/1.1/"
   xmlns:cc="http://creativecommons.org/ns#"
   xmlns:rdf="http://www.w3.org/1999/02/22-rdf-syntax-ns#"
   xmlns:svg="http://www.w3.org/2000/svg"
   xmlns="http://www.w3.org/2000/svg"
   xmlns:sodipodi="http://sodipodi.sourceforge.net/DTD/sodipodi-0.dtd"
   xmlns:inkscape="http://www.inkscape.org/namespaces/inkscape"
   width="580"
   height="580"
   id="svg2"
   version="1.1"
   inkscape:version="0.48.4 r9939"
   sodipodi:docname="harbour_shipyard.svg">
  <defs
     id="defs13">
    <inkscape:path-effect
       effect="gears"
       id="path-effect3774"
       is_visible="true"
       teeth="6"
       phi="-1.2" />
    <inkscape:path-effect
       effect="bend_path"
       id="path-effect3772"
       is_visible="false"
       bendpath="m 95.790098,316.51174 c 144.429032,-206.42506 223.313032,-11.7428 339.548092,0"
       prop_scale="1.19"
       scale_y_rel="false"
       vertical="false"
       bendpath-nodetypes="cc" />
  </defs>
  <sodipodi:namedview
     pagecolor="#ffffff"
     bordercolor="#666666"
     borderopacity="1"
     objecttolerance="10"
     gridtolerance="10"
     guidetolerance="10"
     inkscape:pageopacity="0"
     inkscape:pageshadow="2"
     inkscape:window-width="1920"
     inkscape:window-height="1004"
     id="namedview11"
     showgrid="false"
     inkscape:zoom="0.5754386"
     inkscape:cx="443.51656"
     inkscape:cy="269.69964"
     inkscape:window-x="1680"
     inkscape:window-y="0"
     inkscape:window-maximized="1"
     inkscape:current-layer="svg2" />
  <metadata
     id="metadata2975">image/svg+xmlen<rdf:RDF>
  <cc:Work
     rdf:about="">
    <dc:format>image/svg+xml</dc:format>
    <dc:type
       rdf:resource="http://purl.org/dc/dcmitype/StillImage" />
    <dc:title />
  </cc:Work>
</rdf:RDF>
</metadata>
  <path
     inkscape:connector-curvature="0"
     class="st0"
     d="m 105.6964,268.79889 v 149.89006 c 0,27.53083 21.41286,48.94368 48.94368,48.94368 h 270.71981 c 26.00135,0 48.9437,-21.41285 48.9437,-48.94368 V 268.79889"
     id="path5"
     style="fill:none;stroke:#930093;stroke-width:26.00133896;stroke-miterlimit:4;stroke-opacity:1;stroke-dasharray:none" />
  <path
     inkscape:connector-curvature="0"
     d="m 212.76073,166.32303 v 56.59113 h 152.94904 v -56.59113 c 0,-10.70643 -9.17695,-19.88338 -19.88338,-19.88338 H 232.6441 c -10.70643,0 -19.88337,9.17695 -19.88337,19.88338 z"
     id="path7"
     style="color:#000000;fill:#930093;fill-opacity:1;fill-rule:nonzero;stroke:none;stroke-width:1;marker:none;visibility:visible;display:inline;overflow:visible;enable-background:accumulate" />
  <path
     style="font-size:medium;font-style:normal;font-variant:normal;font-weight:normal;font-stretch:normal;text-indent:0;text-align:start;text-decoration:none;line-height:normal;letter-spacing:normal;word-spacing:normal;text-transform:none;direction:ltr;block-progression:tb;writing-mode:lr-tb;text-anchor:start;baseline-shift:baseline;color:#000000;fill:#930093;fill-opacity:1;fill-rule:nonzero;stroke:none;stroke-width:1.89999998;marker:none;visibility:visible;display:inline;overflow:visible;enable-background:accumulate;font-family:Sans;-inkscape-font-specification:Sans"
     d="m 287.72304,82.864852 c -7.14746,0.802982 -13.09121,7.626952 -12.90508,14.816931 l 0,30.589827 29.15592,0 0,-30.589827 c 0.22178,-8.31124 -7.99541,-15.803604 -16.25084,-14.816931 z"
     id="line11"
     inkscape:connector-curvature="0"
     sodipodi:nodetypes="cccccc" />
  <path
     inkscape:connector-curvature="0"
     d="M 411.5945,238.20908 H 166.87601 v 33.64878 c 0,27.53083 12.23592,52.00268 33.6488,68.82707 l 88.71044,65.7681 88.71045,-65.7681 c 21.41286,-16.82439 33.64879,-41.29624 33.64879,-68.82707 v -33.64878 z m -30.58983,38.23725 -30.58979,7.64746 v -15.2949 h 30.58979 v 7.64744 z m -152.94904,7.64746 -30.58981,-7.64746 v -7.64744 h 30.58981 v 15.2949 z"
     id="path13"
     style="color:#000000;fill:#930093;fill-opacity:1;fill-rule:nonzero;stroke:none;stroke-width:1;marker:none;visibility:visible;display:inline;overflow:visible;enable-background:accumulate" />
  <path
     inkscape:connector-curvature="0"
     d="M 442.18429,374.33372 396.29958,345.2734 c -3.05898,3.05899 -6.11797,6.11797 -9.17694,7.64745 l -10.70643,7.64745 65.76808,41.29625 v -27.53083 z"
     id="path15"
     style="color:#000000;fill:#930093;fill-opacity:1;fill-rule:nonzero;stroke:none;stroke-width:1;marker:none;visibility:visible;display:inline;overflow:visible;enable-background:accumulate" />
  <path
     inkscape:connector-curvature="0"
     d="m 136.28621,400.33505 65.76808,-39.76675 -9.17694,-7.64745 c -4.58847,-3.05898 -7.64744,-6.11795 -10.70643,-7.64745 l -45.8847,29.06032 v 26.00133 z"
     id="path17"
     style="color:#000000;fill:#930093;fill-opacity:1;fill-rule:nonzero;stroke:none;stroke-width:1;marker:none;visibility:visible;display:inline;overflow:visible;enable-background:accumulate" />
</svg>

<svg width="580" height="580" viewBox="0 0 580 580" fill="none" xmlns="http://www.w3.org/2000/svg">
<path d="M105.696 268.799V418.689C105.696 446.22 127.109 467.633 154.64 467.633H425.36C451.361 467.633 474.304 446.22 474.304 418.689V268.799" stroke="#930093" stroke-width="26.0013"/>
<path d="M212.761 166.323V222.914H365.71V166.323C365.71 155.616 356.533 146.439 345.826 146.439H232.644C221.938 146.439 212.761 155.616 212.761 166.323V166.323Z" fill="#930093"/>
<path d="M287.723 82.865C280.576 83.668 274.632 90.492 274.818 97.682V128.272H303.974V97.682C304.196 89.3707 295.978 81.8784 287.723 82.865V82.865Z" fill="#930093"/>
<path d="M411.594 238.209H166.876V271.858C166.876 299.389 179.112 323.86 200.525 340.685L289.235 406.453L377.946 340.685C399.359 323.86 411.594 299.389 411.594 271.858V238.209H411.594ZM381.005 276.446L350.415 284.094V268.799H381.005V276.446V276.446ZM228.056 284.094L197.466 276.446V268.799H228.056V284.094V284.094Z" fill="#930093"/>
<path d="M442.184 374.334L396.3 345.273C393.241 348.332 390.182 351.391 387.123 352.921L376.416 360.568L442.184 401.865V374.334V374.334Z" fill="#930093"/>
<path d="M136.286 400.335L202.054 360.568L192.877 352.921C188.289 349.862 185.23 346.803 182.171 345.273L136.286 374.334V400.335H136.286Z" fill="#930093"/>
</svg>
